brandFactory_export/1.Light/Mano izquierda_1Light.svg

<?xml version="1.0" encoding="UTF-8"?>
<svg width="24px" height="24px" viewBox="0 0 24 24" version="1.1" xmlns="http://www.w3.org/2000/svg" xmlns:xlink="http://www.w3.org/1999/xlink">
    <title>1.Light/Mano izquierda_1Light</title>
    <g id="Symbols" stroke="none" stroke-width="1" fill="none" fill-rule="evenodd">
        <g id="1.Light/Mano-izquierda_1Light" fill="#5CB615" fill-rule="nonzero">
            <path d="M19.8218487,20.7294118 C20.7193277,20.7294118 21.4184874,20.497479 21.8957983,20.0336134 C22.3731092,19.5697479 22.6386555,18.8134454 22.6386555,17.8991597 L22.6386555,8.55462185 C22.6386555,8.32605042 22.4403361,8.14453782 21.9361345,7.91260504 C21.5529412,7.73445378 20.2823529,7.11260504 18.9411765,6.45042017 C16.702521,5.34789916 13.9159664,3.97647059 12.1781513,3.16302521 C11.5764706,2.88067227 10.9915966,2.96134454 10.6588235,3.37815126 C10.487395,3.58991597 10.3966387,3.85210084 10.3966387,4.12773109 C10.3966387,4.42689076 10.5042017,4.72605042 10.702521,4.97142857 C10.9512605,5.28403361 11.3277311,5.57647059 11.9596639,5.94621849 C12.3394958,6.16806723 12.5243697,6.61848739 12.4067227,7.04537815 C12.2890756,7.46890756 11.8991597,7.76470588 11.4554622,7.76470588 L2.60504202,7.76470588 C1.15294118,7.85882353 0.988235294,8.7092437 0.988235294,9.34453782 C0.988235294,10.3798319 1.54285714,10.9277311 2.59495798,10.9277311 L6.07731092,10.9277311 C6.61848739,10.9277311 7.05882353,11.3613445 7.06218487,11.902521 C7.06218487,11.989916 7.0487395,12.0806723 7.02521008,12.1647059 C6.97815126,12.3294118 6.95462185,12.5176471 6.95462185,12.7226891 C6.95462185,13.4756303 7.2605042,13.9462185 7.86554622,14.1176471 C8.28571429,14.2352941 8.57815126,14.6184874 8.58151261,15.0554622 C8.58151261,15.1596639 8.56470588,15.2638655 8.53109244,15.3647059 C8.46722689,15.5663866 8.43697479,15.7781513 8.44033613,15.989916 C8.44033613,16.7462185 8.74957983,17.2168067 9.36134454,17.3882353 C9.62016807,17.4588235 9.83865546,17.6336134 9.96638655,17.8689076 C10.0941176,18.1042017 10.1176471,18.3798319 10.0336134,18.6352941 C9.9697479,18.8369748 9.9394958,19.0453782 9.94285714,19.2571429 C9.94285714,20.2319328 10.4436975,20.7260504 11.4319328,20.7260504 L19.8218487,20.7294118 Z M8.9512605,19.2605042 C8.9512605,18.9210084 8.99831933,18.6084034 9.09243697,18.3327731 C8.06386555,18.0470588 7.45210084,17.2033613 7.45210084,15.9966387 C7.45210084,15.6571429 7.50252101,15.3445378 7.59327731,15.0655462 C6.57478992,14.7764706 5.9697479,13.9361345 5.9697479,12.7327731 C5.9697479,12.4369748 6.00672269,12.1613445 6.07731092,11.912605 L2.59159664,11.912605 C0.994957983,11.9092437 0,10.9277311 0,9.34789916 C0,7.82857143 0.924369748,6.89747899 2.54117647,6.79327731 L2.59159664,6.79327731 L11.4554622,6.78991597 C10.7630252,6.38319328 10.2789916,6.01680672 9.92941176,5.57983193 C9.59663866,5.1697479 9.41512605,4.65882353 9.41176471,4.13109244 C9.41176471,3.64705882 9.5697479,3.16638655 9.88907563,2.77310924 C10.5142857,1.99327731 11.5798319,1.80168067 12.605042,2.28235294 C14.3428571,3.09915966 17.1361345,4.47394958 19.3815126,5.57647059 C20.7798319,6.26554622 21.9865546,6.8605042 22.3529412,7.02857143 C22.7327731,7.20336134 23.6268908,7.61680672 23.6268908,8.55462185 L23.6268908,17.8991597 C23.6268908,19.0789916 23.2571429,20.0840336 22.5882353,20.7327731 C21.9226891,21.3781513 20.9915966,21.7042017 19.8285714,21.7042017 L11.4285714,21.7042017 C9.89915966,21.7042017 8.9512605,20.7697479 8.9512605,19.2605042 Z" id="Mano-izquierda_1Light"></path>
        </g>
    </g>
</svg>

<svg width="24" height="24" viewBox="0 0 24 24" xmlns="http://www.w3.org/2000/svg"><path d="M19.822 20.73c.897 0 1.596-.233 2.074-.696.477-.464.743-1.22.743-2.135V8.555c0-.229-.199-.41-.703-.642-.383-.179-1.654-.8-2.995-1.463-2.238-1.102-5.025-2.474-6.763-3.287-.602-.282-1.186-.202-1.52.215a1.184 1.184 0 00-.261.75c0 .299.107.598.306.843.248.313.625.605 1.257.975.38.222.564.672.447 1.1a.987.987 0 01-.952.719h-8.85c-1.452.094-1.617.944-1.617 1.58 0 1.035.555 1.583 1.607 1.583h3.482c.541 0 .982.433.985.975a.988.988 0 01-.037.262c-.047.164-.07.353-.07.558 0 .753.306 1.223.91 1.395.42.117.713.5.717.937a.977.977 0 01-.05.31 1.97 1.97 0 00-.092.625c0 .756.31 1.227.921 1.398.26.07.478.246.605.48.128.236.152.512.068.767a1.95 1.95 0 00-.091.622c0 .975.5 1.47 1.489 1.47l8.39.002zm-10.87-1.47c0-.339.046-.652.14-.927-1.028-.286-1.64-1.13-1.64-2.336 0-.34.05-.652.141-.931-1.018-.29-1.623-1.13-1.623-2.333 0-.296.037-.572.107-.82H2.592C.995 11.909 0 10.928 0 9.348c0-1.52.924-2.45 2.541-2.555h.05l8.864-.003c-.692-.407-1.176-.773-1.526-1.21a2.321 2.321 0 01-.517-1.449c0-.484.158-.965.477-1.358.625-.78 1.69-.971 2.716-.49 1.738.816 4.531 2.19 6.777 3.293 1.398.69 2.605 1.285 2.97 1.453.38.174 1.275.588 1.275 1.526v9.344c0 1.18-.37 2.185-1.039 2.834-.665.645-1.596.971-2.76.971h-8.4c-1.529 0-2.477-.934-2.477-2.443z" fill="#5CB615" fill-rule="nonzero"/></svg>
